icons/info-24.svg

<svg width="24" height="24" viewBox="0 0 24 24" fill="none" xmlns="http://www.w3.org/2000/svg">
<path d="M13 7.5C13 8.05228 12.5523 8.5 12 8.5C11.4477 8.5 11 8.05228 11 7.5C11 6.94772 11.4477 6.5 12 6.5C12.5523 6.5 13 6.94772 13 7.5Z" fill="#24292E"/>
<path d="M10 11.25C10 10.8358 10.3358 10.5 10.75 10.5H12.25C12.6642 10.5 13 10.8358 13 11.25V15.5H13.75C14.1642 15.5 14.5 15.8358 14.5 16.25C14.5 16.6642 14.1642 17 13.75 17H10.75C10.3358 17 10 16.6642 10 16.25C10 15.8358 10.3358 15.5 10.75 15.5H11.5V12H10.75C10.3358 12 10 11.6642 10 11.25Z" fill="#24292E"/>
<path fill-rule="evenodd" clip-rule="evenodd" d="M12 1C5.92487 1 1 5.92487 1 12C1 18.0751 5.92487 23 12 23C18.0751 23 23 18.0751 23 12C23 5.92487 18.0751 1 12 1ZM2.5 12C2.5 6.75329 6.75329 2.5 12 2.5C17.2467 2.5 21.5 6.75329 21.5 12C21.5 17.2467 17.2467 21.5 12 21.5C6.75329 21.5 2.5 17.2467 2.5 12Z" fill="#24292E"/>
</svg>

<svg xmlns="http://www.w3.org/2000/svg" width="24" height="24" viewBox="0 0 24 24"><path d="M13 7.5a1 1 0 11-2 0 1 1 0 012 0zm-3 3.75a.75.75 0 01.75-.75h1.5a.75.75 0 01.75.75v4.25h.75a.75.75 0 010 1.5h-3a.75.75 0 010-1.5h.75V12h-.75a.75.75 0 01-.75-.75z"/><path fill-rule="evenodd" d="M12 1C5.925 1 1 5.925 1 12s4.925 11 11 11 11-4.925 11-11S18.075 1 12 1zM2.5 12a9.5 9.5 0 1119 0 9.5 9.5 0 01-19 0z"/></svg>
